X:1
T:Title
%%score { ( 1 4 ) | ( 2 3 ) }
L:1/8
Q:1/4=94
M:4/4
K:Eb
V:1 treble nm="Grand Piano"
V:4 treble 
V:2 bass 
V:3 bass 
V:1
 [CE][CE][=B,D][CE] [CB]2 [CA]2 | AGG_G =G4 | GBFA G2 F2 | [_DF][CE][=B,=D][CE] [Ec]4 | %4
w: B.~D.~Ackley * * * * *||||
 [CE][CE][=B,D][CE] [CB]2 [CA]2 | AGG_G =G4 | [DB][DF][D=E][DF] [DB][DF][DE][DF] | %7
w: |||
 [Dc]2 [D=B]2 [_D_B]4 | [Ec]2 [CE]2 .[E,CD]2 .[CB]2 | [B,G]6 z2 | _d2 F2 GBFG | E2 E4 z2 | %12
w: |||||
 [CE][CE][B,D][CE] [CB]2 [CA]2 | [EG][_DF][=DE][DF] [Fe]2 [F_d]2 | cEDE cBFG | [CA]8 |] %16
w: ||||
V:2
 [A,,A,][A,,A,][A,,A,][A,,A,] [A,,E,]2 [A,,A,]2 | [E,B,_D][E,B,D][E,B,D][E,=A,D] [E,B,D]4 | %2
 [E,B,_D][E,G,D][E,A,D][E,A,D] [E,B,D]2 [E,G,D]2 | [A,,A,][A,,A,][A,,A,][A,,A,] [A,,A,]4 | %4
 [A,,A,][A,,A,][A,,A,][A,,A,] [A,,E,]2 [A,,A,]2 | [E,CE][E,B,E][E,B,E][E,=A,E] [E,B,E]4 | %6
 [B,,A,][B,,A,][B,,G,][B,,A,] [B,,F,][B,,A,][B,,G,][B,,A,] | [B,,F,]2 [B,,A,]2 [E,G,]4 | %8
 [A,,A,]2 [A,,A,]2 z E z A | E,E,E,E, E,2 z2 | [E,G,E]2 [E,A,_D]2 DDDD | z A,G,F, [A,,E,]2 z2 | %12
 [A,,A,][A,,A,][A,,A,][A,,A,] [A,,E,]2 [A,,A,]2 | [_D,A,][D,A,][D,G,][D,A,] [C,=A,]2 [D,_A,]2 | %14
 [E,A,E][E,A,C][E,A,=B,][E,A,C] [E,G,E][E,G,_D][E,A,D][E,D] | [A,,E,]8 |] %16
V:3
 x8 | x8 | x8 | x8 | x8 | x8 | x8 | x8 | z4 A,,2 [A,,A,]2 | x8 | z4 [E,B,]2 [E,B,]2 | %11
 A,,2 A,,2 z4 | x8 | x8 | x8 | x8 |] %16
V:4
 x8 | x8 | x8 | x8 | x8 | x8 | x8 | x8 | x8 | _DDDD D2 z2 | x8 | [A,C]C z _D C2 z2 | x8 | x8 | x8 | %15
 x8 |] %16

